X: 11632
Q: "Moderate."
M: C
L: 1/8
K: Eb
e3f g2G2 | F3G A2c2 |\
(B2df e)c(=AF) | B2(df ec)(=AF) |\
d>e |\
f2A2 G2(e>f) | g2B2 A2zA |\
_d3e c2e2 | =d2e2 B2zA |\
(GB)(eg) (gf)(ed) | e4 z2 |]


